packages/calcite-ui-icons/icons/uncollapse-entities-16.svg

<?xml version="1.0" encoding="UTF-8"?><svg id="icons" xmlns="http://www.w3.org/2000/svg" viewBox="0 0 16 16"><defs><style>.cls-1{fill:none;}</style></defs><path d="M2.5,5c-1.37891,0-2.5,1.12109-2.5,2.5s1.12109,2.5,2.5,2.5,2.49-1.12109,2.49-2.5-1.11109-2.5-2.49-2.5ZM4,8c0,.55225-.44769,1-1,1h-1c-.55231,0-1-.44775-1-1v-1c0-.55231.44769-1,1-1h1c.55231,0,1,.44769,1,1v1ZM9.99994,9l.00006-1h-4v-1h4l.00006-1.00006,1.99988,1.5-2,1.50006ZM11,2.5c0-.82715.67285-1.5,1.5-1.5s1.5.67285,1.5,1.5-.67285,1.5-1.5,1.5-1.5-.67285-1.5-1.5ZM14.5,6c-.82715,0-1.5.67285-1.5,1.5s.67285,1.5,1.5,1.5,1.5-.67285,1.5-1.5-.67285-1.5-1.5-1.5ZM15,8h-1v-1h1v1ZM14,12.5c0,.82715-.67285,1.5-1.5,1.5s-1.5-.67285-1.5-1.5.67285-1.5,1.5-1.5,1.5.67285,1.5,1.5Z"/><rect class="cls-1" width="16" height="16"/></svg>

<svg xmlns="http://www.w3.org/2000/svg" viewBox="0 0 16 16"><path d="M2.5 5C1.121 5 0 6.121 0 7.5S1.121 10 2.5 10s2.49-1.121 2.49-2.5S3.879 5 2.5 5zM4 8a1 1 0 0 1-1 1H2a1 1 0 0 1-1-1V7a1 1 0 0 1 1-1h1a1 1 0 0 1 1 1v1zm6 1V8H6V7h4V6l2 1.5L10 9zm1-6.5c0-.827.673-1.5 1.5-1.5s1.5.673 1.5 1.5S13.327 4 12.5 4 11 3.327 11 2.5zM14.5 6c-.827 0-1.5.673-1.5 1.5S13.673 9 14.5 9 16 8.327 16 7.5 15.327 6 14.5 6zm.5 2h-1V7h1v1zm-1 4.5c0 .827-.673 1.5-1.5 1.5s-1.5-.673-1.5-1.5.673-1.5 1.5-1.5 1.5.673 1.5 1.5z"/><path fill="none" d="M0 0h16v16H0z"/></svg>
